web/public/images/3p-logos/magic-link.svg

<svg viewBox="0 0 48 48" fill="none" xmlns="http://www.w3.org/2000/svg">
<path d="M24 0C26.1915 2.54417 28.6085 4.90687 31.2222 7.06069C29.4807 12.4151 28.543 18.1038 28.543 24C28.543 29.8962 29.4807 35.5849 31.2222 40.9393C28.6085 43.0931 26.1915 45.4559 24 48C21.8086 45.4559 19.3916 43.0931 16.7778 40.9393C18.5194 35.5849 19.4571 29.8962 19.4571 24C19.4571 18.1038 18.5194 12.4151 16.7778 7.0607C19.3916 4.90688 21.8086 2.54418 24 0Z" fill="#6851FF"/>
<path d="M11.782 37.2374C9.01532 35.3993 6.07911 33.7748 3 32.3893C3.85412 29.7357 4.3136 26.9187 4.3136 24C4.3136 21.0814 3.85412 18.2645 3 15.6107C6.07909 14.2252 9.0153 12.6007 11.782 10.7626C12.8399 15.0123 13.3997 19.4441 13.3997 24C13.3997 28.5559 12.8399 32.9878 11.782 37.2374Z" fill="#6851FF"/>
<path d="M34.6003 24C34.6003 28.5559 35.1601 32.9878 36.2181 37.2374C38.9847 35.3993 41.9209 33.7748 45 32.3893C44.1459 29.7356 43.6864 26.9186 43.6864 24C43.6864 21.0814 44.1459 18.2645 45 15.6107C41.9209 14.2252 38.9847 12.6007 36.2181 10.7626C35.1601 15.0122 34.6003 19.4441 34.6003 24Z" fill="#6851FF"/>
</svg>

<svg fill="none" viewBox="0 0 48 48" xmlns="http://www.w3.org/2000/svg"><g fill="#6851ff"><path d="M24 0a59.321 59.321 0 0 0 7.222 7.06c-1.741 5.355-2.679 11.044-2.679 16.94s.938 11.585 2.68 16.94A59.325 59.325 0 0 0 24 48a59.31 59.31 0 0 0-7.222-7.06c1.741-5.355 2.68-11.044 2.68-16.94s-.939-11.585-2.68-16.94A59.306 59.306 0 0 0 24 0zM11.782 37.237A61.397 61.397 0 0 0 3 32.39 27.326 27.326 0 0 0 4.314 24c0-2.919-.46-5.736-1.314-8.39a61.4 61.4 0 0 0 8.782-4.847C12.84 15.013 13.4 19.444 13.4 24s-.56 8.988-1.618 13.237zM34.6 24c0 4.556.56 8.988 1.618 13.237A61.392 61.392 0 0 1 45 32.39c-.854-2.653-1.314-5.47-1.314-8.389s.46-5.736 1.314-8.39a61.392 61.392 0 0 1-8.782-4.847A54.719 54.719 0 0 0 34.6 24z"/></g></svg>
